app/img/hero/logo-big.svg

<svg width="660" height="262" viewBox="0 0 660 262" fill="none" xmlns="http://www.w3.org/2000/svg">
<g clip-path="url(#clip0_241_5796)">
<path d="M448.418 195.163C447.162 198.584 445.743 201.943 444.164 205.228C442.113 209.322 439.909 213.252 437.542 217.018C436.909 217.968 436.44 218.754 435.807 219.54C435.18 220.326 434.705 221.27 434.073 222.051C426.349 232.432 417.054 240.773 406.02 247.061C390.731 255.865 372.916 260.745 352.745 261.214H349.909L334.931 195.168H448.418V195.163ZM457.565 138.707C457.565 157.893 455.045 175.032 450.158 190.13H427.303C422.574 177.549 418.003 165.131 413.274 152.544L393.889 138.866C395.623 132.097 397.516 125.182 399.245 118.419C417.687 113.861 436.129 109.456 454.729 104.893C455.045 106.148 455.204 107.409 455.356 108.67C455.52 109.614 455.673 110.4 455.673 111.181C456.464 117.633 457.091 123.61 457.407 128.8V130.214C457.571 132.889 457.571 135.874 457.571 138.707H457.565ZM292.854 46.707C292.66 59.7958 291.342 72.8437 288.916 85.7068C287.967 91.2143 286.707 96.7163 285.447 102.377C285.131 103.479 284.973 104.582 284.662 105.679C284.345 106.781 284.187 107.726 283.871 108.828C283.554 110.242 283.085 111.814 282.611 113.228C281.509 117.158 280.402 120.935 279.142 124.712C264.613 129.762 250.06 134.742 235.484 139.652C237.376 129.428 239.111 119.205 240.998 108.828C241.314 106.623 241.789 104.423 242.258 102.06C242.422 101.279 242.574 100.335 242.733 99.5492C244.942 89.6423 248.094 80.3631 252.191 72.0283C260.231 55.5168 271.418 42.6187 285.605 33.1813C287.177 32.0944 288.808 31.0975 290.493 30.1956L292.38 29.2513V30.0373C292.544 31.1399 292.544 32.237 292.544 33.3396C292.854 37.9027 292.854 42.3022 292.854 46.707ZM269.836 149.87C263.378 164.814 255.971 178.335 247.462 190.13C247.147 190.458 246.881 190.829 246.671 191.233L245.727 192.652C245.094 193.432 244.467 194.377 243.834 195.163C241.942 197.679 240.049 200.037 237.998 202.242C237.529 202.712 237.054 203.181 236.744 203.814C236.427 204.125 236.111 204.6 235.636 204.911C234.851 205.703 234.06 206.642 233.274 207.428C231.382 209.475 229.489 211.358 227.602 213.246C226.653 214.191 225.551 215.135 224.449 216.079C223.489 217.014 222.488 217.907 221.449 218.754C225.076 198.776 228.704 178.962 232.173 158.996C244.62 156.005 257.231 153.019 269.842 149.87H269.836ZM344.705 261.372H343.756C323.585 260.745 305.929 256.023 290.482 247.219C273.933 237.781 261.322 223.786 252.338 205.386C251.036 202.65 249.828 199.87 248.716 197.051C249.185 196.424 249.66 195.949 249.971 195.321C250.604 194.535 251.236 193.591 251.869 192.805C252.496 192.019 253.124 191.075 253.598 190.288C262.107 178.024 269.52 164.023 275.984 148.456L316.964 138.391C326.105 179.437 335.4 220.32 344.705 261.367V261.372ZM237.06 261.372H167.242V253.196C183.963 248.784 199.725 241.319 213.736 231.177C214.68 230.391 215.782 229.758 216.731 228.977C217.674 228.186 218.776 227.4 219.725 226.614C220.669 225.828 221.771 225.042 222.72 224.103C223.664 223.153 224.765 222.367 225.714 221.428C228.393 219.065 230.913 216.707 233.438 214.191L237.06 261.372ZM351.491 77.2137C341.119 72.039 332.394 64.0738 326.295 54.2123C320.196 44.3507 316.965 32.9832 316.964 21.3858V19.8138C321.294 18.7303 325.744 18.2021 330.207 18.2418C332.88 18.2418 335.405 18.4001 337.931 18.8695C334.989 25.2824 333.481 32.2603 333.513 39.3165C333.511 46.572 335.123 53.7369 338.231 60.2917C341.34 66.8466 345.867 72.6269 351.485 77.2137H351.491ZM311.291 113.697C302.624 116.688 293.798 119.68 285.125 122.665L287.493 114.641C287.651 114.172 287.651 113.861 287.809 113.386C288.12 112.442 288.278 111.497 288.594 110.559C288.911 109.614 289.069 108.512 289.385 107.567C290.329 104.107 291.114 100.646 291.905 97.1857C295.091 82.8602 297.044 68.2876 297.742 53.6282L311.291 113.697ZM435.654 48.4373C434.236 56.4611 432.971 64.3211 431.553 72.3448C418.625 76.7443 405.698 81.3074 392.624 85.7068C399.082 73.7531 405.387 61.7993 411.851 50.0093C419.789 49.5688 427.722 49.0448 435.649 48.4373H435.654Z" fill="#202020"/>
<path d="M453.622 99.8602L227.602 155.06C225.709 165.759 223.816 176.293 221.929 186.986L209.946 172.522C214.047 164.967 218.302 157.26 222.398 149.717C296.476 124.237 370.56 98.7631 444.638 73.4418C448.424 81.3018 451.418 90.1116 453.622 99.8602ZM384.273 72.1864V74.2278C384.273 76.2747 384.115 78.1578 383.804 80.0464C383.64 81.3018 383.487 82.4044 383.171 83.6653H382.38C358.107 83.1904 338.564 63.535 338.564 39.1581C338.564 32.2369 340.146 25.6323 342.982 19.8137C366.622 25.6323 384.273 46.8652 384.273 72.1864Z" fill="#202020"/>
<path d="M418.942 26.2641L388.205 83.3474C388.838 79.7285 389.313 76.1151 389.313 72.1851C389.313 46.0779 372.289 23.9007 348.802 16.199C347.7 15.8824 346.756 15.5658 345.649 15.2547C344.864 15.0909 343.915 14.7798 343.129 14.6215C342.185 14.4687 341.395 14.3104 340.451 14.1521C337.073 13.519 333.644 13.2029 330.207 13.2078C325.789 13.2078 321.535 13.6827 317.28 14.627C327.48 7.01298 339.484 2.18612 352.113 0.620872C353.695 0.462581 355.265 0.309747 357 0.151456C358.418 -0.00683593 359.836 -0.00683594 361.255 -0.00683594H362.045C374.651 0.151456 386.629 3.45375 397.036 9.27233C397.189 9.27233 397.347 9.43062 397.347 9.43062C397.347 9.43062 400.816 11.472 403.653 13.5189C406.02 15.0909 411.851 19.4958 418.942 26.2587V26.2641ZM42.7091 251.147C36.4091 248.003 31.2109 244.385 26.9509 240.138L8.51455 258.538H0V194.697H13.3964C16.5109 205.248 21.2992 215.229 27.5782 224.26C41.2964 243.762 58.9473 253.516 80.7 253.516C93.4636 253.516 103.713 249.739 111.278 242.032C118.844 234.483 122.787 224.26 122.787 211.52C122.863 204.359 120.531 197.381 116.165 191.706C111.61 185.679 106.066 180.469 99.7691 176.297C93.3109 171.892 84.1691 166.232 72.5018 159.469C57.6873 151.134 45.7091 143.744 36.4091 136.981C27.0687 130.084 19.1038 121.495 12.9273 111.66C6.46364 101.431 3.15273 89.4825 3.15273 75.4874C3.15273 64.4834 6.30545 54.5765 12.4527 45.7668C18.6 36.9625 27.9 29.883 40.1945 24.5338C52.4891 19.3484 67.62 16.6738 85.5873 16.6738C98.6673 16.6738 111.595 20.2927 124.675 27.8416C129.562 30.5162 134.602 34.1296 139.489 38.5345L157.931 20.1344H166.287V83.9805H152.891C149.891 73.2877 145.636 63.5391 139.805 54.7293C134.569 46.4218 127.771 39.2107 119.787 33.4964C112.064 27.8361 102.927 25.1615 92.52 25.1615C83.6945 25.1615 76.2873 28.6221 69.9818 35.5378C63.6764 42.459 60.5236 51.2687 60.5236 62.1199C60.5236 70.4548 62.8909 77.8399 67.7782 84.4445C72.7052 91.1687 78.7252 97.0176 85.5873 101.747C92.6782 106.622 102.295 112.599 114.431 119.52C128.613 127.543 139.964 134.776 148.795 141.064C157.621 147.329 165.164 155.23 171.016 164.338C177.005 173.617 180.158 184.316 180.158 196.422C180.158 208.529 176.689 219.538 169.751 229.445C162.824 239.352 152.416 247.376 138.387 253.189C124.516 259.018 107.493 261.999 87.6382 261.999C71.5582 261.84 56.7436 258.227 42.7145 251.147H42.7091ZM471.273 256.649L492.393 251.464V27.203L471.273 22.0175V16.8267H571.364V22.0121L550.244 27.203V253.189H625.74C633.305 235.105 641.029 217.022 648.595 198.933H659.155V261.999H471.273V256.649Z" fill="#202020"/>
</g>
<defs>
<clipPath id="clip0_241_5796">
<rect width="660" height="262" fill="white"/>
</clipPath>
</defs>
</svg>

<svg width="660" height="262" fill="none" xmlns="http://www.w3.org/2000/svg"><g clip-path="url(#clip0_241_5796)" fill="#202020"><path d="M448.418 195.163a113.63 113.63 0 01-4.254 10.065 139.827 139.827 0 01-6.622 11.79c-.633.95-1.102 1.736-1.735 2.522-.627.786-1.102 1.73-1.734 2.511-7.724 10.381-17.019 18.722-28.053 25.01-15.289 8.804-33.104 13.684-53.275 14.153h-2.836l-14.978-66.046h113.487v-.005zm9.147-56.456c0 19.186-2.52 36.325-7.407 51.423h-22.855c-4.729-12.581-9.3-24.999-14.029-37.586l-19.385-13.678c1.734-6.769 3.627-13.684 5.356-20.447 18.442-4.558 36.884-8.963 55.484-13.526.316 1.255.475 2.516.627 3.777.164.944.317 1.73.317 2.511.791 6.452 1.418 12.429 1.734 17.619v1.414c.164 2.675.164 5.66.164 8.493h-.006zm-164.711-92a228.72 228.72 0 01-3.938 39c-.949 5.507-2.209 11.01-3.469 16.67-.316 1.102-.474 2.205-.785 3.302-.317 1.102-.475 2.047-.791 3.149-.317 1.414-.786 2.986-1.26 4.4-1.102 3.93-2.209 7.707-3.469 11.484a4806.093 4806.093 0 01-43.658 14.94c1.892-10.224 3.627-20.447 5.514-30.824.316-2.205.791-4.405 1.26-6.768.164-.781.316-1.725.475-2.51 2.209-9.908 5.361-19.187 9.458-27.522 8.04-16.511 19.227-29.41 33.414-38.847a50.486 50.486 0 014.888-2.985l1.887-.945v.786c.164 1.103.164 2.2.164 3.303.31 4.563.31 8.962.31 13.367zM269.836 149.87c-6.458 14.944-13.865 28.465-22.374 40.26a4.762 4.762 0 00-.791 1.103l-.944 1.419c-.633.78-1.26 1.725-1.893 2.511-1.892 2.516-3.785 4.874-5.836 7.079-.469.47-.944.939-1.254 1.572-.317.311-.633.786-1.108 1.097-.785.792-1.576 1.731-2.362 2.517-1.892 2.047-3.785 3.93-5.672 5.818-.949.945-2.051 1.889-3.153 2.833a45.56 45.56 0 01-3 2.675c3.627-19.978 7.255-39.792 10.724-59.758 12.447-2.991 25.058-5.977 37.669-9.126h-.006zm74.869 111.502h-.949c-20.171-.627-37.827-5.349-53.274-14.153-16.549-9.438-29.16-23.433-38.144-41.833a132.82 132.82 0 01-3.622-8.335c.469-.627.944-1.102 1.255-1.73.633-.786 1.265-1.73 1.898-2.516a24.55 24.55 0 001.729-2.517c8.509-12.264 15.922-26.265 22.386-41.832l40.98-10.065c9.141 41.046 18.436 81.929 27.741 122.976v.005zm-107.645 0h-69.818v-8.176a140.365 140.365 0 0046.494-22.019c.944-.786 2.046-1.419 2.995-2.2.943-.791 2.045-1.577 2.994-2.363.944-.786 2.046-1.572 2.995-2.511.944-.95 2.045-1.736 2.994-2.675a172.18 172.18 0 007.724-7.237l3.622 47.181zM351.491 77.214a62.36 62.36 0 01-25.196-23.002 62.42 62.42 0 01-9.331-32.826v-1.572a52.626 52.626 0 0113.243-1.572c2.673 0 5.198.158 7.724.627a48.509 48.509 0 00-4.418 20.447 48.894 48.894 0 0017.972 37.897h.006zm-40.2 36.483c-8.667 2.991-17.493 5.983-26.166 8.968l2.368-8.024c.158-.469.158-.78.316-1.255.311-.944.469-1.889.785-2.827.317-.945.475-2.047.791-2.992.944-3.46 1.729-6.921 2.52-10.381a256.924 256.924 0 005.837-43.558l13.549 60.069zm124.363-65.26c-1.418 8.024-2.683 15.884-4.101 23.908-12.928 4.4-25.855 8.962-38.929 13.362 6.458-11.954 12.763-23.908 19.227-35.698 7.938-.44 15.871-.964 23.798-1.572h.005z"/><path d="M453.622 99.86l-226.02 55.2c-1.893 10.699-3.786 21.233-5.673 31.926l-11.983-14.464c4.101-7.555 8.356-15.262 12.452-22.805 74.078-25.48 148.162-50.954 222.24-76.275 3.786 7.86 6.78 16.67 8.984 26.418zm-69.349-27.674v2.042c0 2.047-.158 3.93-.469 5.818-.164 1.256-.317 2.358-.633 3.62h-.791c-24.273-.476-43.816-20.131-43.816-44.508 0-6.921 1.582-13.526 4.418-19.344 23.64 5.818 41.291 27.051 41.291 52.372z"/><path d="M418.942 26.264l-30.737 57.083c.633-3.618 1.108-7.232 1.108-11.162 0-26.107-17.024-48.284-40.511-55.986-1.102-.317-2.046-.633-3.153-.944-.785-.164-1.734-.475-2.52-.634-.944-.152-1.734-.31-2.678-.469a55.178 55.178 0 00-10.244-.944 59.12 59.12 0 00-12.927 1.419A73.302 73.302 0 01352.113.621 632.97 632.97 0 01357 .15c1.418-.158 2.836-.158 4.255-.158h.79c12.606.158 24.584 3.46 34.991 9.28.153 0 .311.158.311.158s3.469 2.041 6.306 4.088c2.367 1.572 8.198 5.977 15.289 12.74v.005zM42.709 251.147c-6.3-3.144-11.498-6.762-15.758-11.009l-18.436 18.4H0v-63.841h13.396a102.738 102.738 0 0014.182 29.563c13.718 19.502 31.37 29.256 53.122 29.256 12.764 0 23.013-3.777 30.578-11.484 7.566-7.549 11.509-17.772 11.509-30.512a31.938 31.938 0 00-6.622-19.814 66.794 66.794 0 00-16.396-15.409c-6.458-4.405-15.6-10.065-27.267-16.828-14.815-8.335-26.793-15.725-36.093-22.488a92.877 92.877 0 01-23.482-25.321c-6.463-10.229-9.774-22.177-9.774-36.173 0-11.004 3.152-20.91 9.3-29.72C18.6 36.962 27.9 29.883 40.194 24.534c12.295-5.186 27.426-7.86 45.393-7.86 13.08 0 26.008 3.619 39.088 11.168 4.887 2.674 9.927 6.288 14.814 10.693l18.442-18.4h8.356V83.98h-13.396c-3-10.693-7.255-20.442-13.086-29.252a75.834 75.834 0 00-20.018-21.233c-7.723-5.66-16.86-8.335-27.267-8.335-8.825 0-16.233 3.461-22.538 10.377-6.306 6.921-9.458 15.73-9.458 26.582 0 8.335 2.367 15.72 7.254 22.325a74.469 74.469 0 0017.81 17.302c7.09 4.875 16.707 10.852 28.843 17.773 14.182 8.023 25.533 15.256 34.364 21.544a84.662 84.662 0 0122.221 23.274c5.989 9.279 9.142 19.978 9.142 32.084 0 12.107-3.469 23.116-10.407 33.023-6.927 9.907-17.335 17.931-31.364 23.744-13.871 5.829-30.894 8.81-50.749 8.81-16.08-.159-30.894-3.772-44.924-10.852h-.005zm428.564 5.502l21.12-5.185V27.203l-21.12-5.186v-5.19h100.091v5.185l-21.12 5.191v225.986h75.496c7.565-18.084 15.289-36.167 22.855-54.256h10.56v63.066H471.273v-5.35z"/></g><defs><clipPath id="clip0_241_5796"><path fill="#fff" d="M0 0h660v262H0z"/></clipPath></defs></svg>
